fa/user-tie.svg

<svg xmlns="http://www.w3.org/2000/svg" viewBox="0 0 448 512" height="1em" width="1em">
  <path d="M352 128c0 70.7-57.3 128-128 128S96 198.7 96 128C96 57.31 153.3 0 224 0s128 57.31 128 128zM209.1 359.2 176 304h96l-33.1 55.2 33.3 123.9 39.5-161.2c77.2 12 136.3 78.8 136.3 159.4 0 16.9-13.8 30.7-30.7 30.7H30.72C13.75 512 0 498.2 0 481.3c0-80.6 59.09-147.4 136.3-159.4l39.5 161.2 33.3-123.9z"/>
</svg>

<svg xmlns="http://www.w3.org/2000/svg" viewBox="0 0 448 512" height="1em" width="1em">
  <path d="M352 128C352 198.7 294.7 256 224 256C153.3 256 96 198.7 96 128C96 57.31 153.3 0 224 0C294.7 0 352 57.31 352 128zM209.1 359.2L176 304H272L238.9 359.2L272.2 483.1L311.7 321.9C388.9 333.9 448 400.7 448 481.3C448 498.2 434.2 512 417.3 512H30.72C13.75 512 0 498.2 0 481.3C0 400.7 59.09 333.9 136.3 321.9L175.8 483.1L209.1 359.2z"/>
</svg>
